X:17
T:Schottis fr{\aa}n Idre
R:schottis
A:Idre, Dalarna
Z:id:hn-schottis-17
M:C|
K:D
D2FA d2d2|FAde f2f2|gfed c2Bc|d2AG FED2|
D2FA d2d2|FAde f2f2|gfed c2Bc|d2dc d4:|
|:a2a2 g2eg|=f2ed e4|=f2ag f2ed|cded c2A2|
a2a2 g2eg|=f2ed e4|=f2ag f2ed|cdec d4:|
P:variant
|:D2F>A d2d2|D2F>A d>ed>c|e>fe>c A2B>c|d2c>B A>GF>E|
D2F>A d2d2|D2F>A d>ed>c|e>fe>c A2B>c|d2d2 d4:|
|:a2a2 g2e>g|f2d2 e4|=f2a>g f2e>d|c>de>d c2A2|
a2a2 g2e>g|f2d2 e4|=f2a>g f2e>d|c>de>c d4:|
<end>
<start>
